X: 425
%
U:~=!turn!
T: Miss Sitwell
C:
O:Scotland
B:Keith Norman MacDonald : "The Skye collection of the best reels & strathspeys extant" : 1887
Z:Ralph Palmer
R:Strathspey
M:C
L:1/8
K:Bb
(D<C) !segno!| B,>FD>F G<C C(D/C/) | B,>FD>B F>dB>f | d>c (B/c/)(d/B/) c<C C(D/C/) | B,>FD>B ~F2 (FE)(DC) | B,>FD>F G<C C(D/C/) |
B,>FD>B F>dB>f | d>c (B/c/)(d/B/) c<C C(D/E/) | F<BD>F B2 ~B :| (d/e/) | f<bd>f g<c Tc(d/e/) | (f>b)d>e (f<g)d>b |
f<db>f g<c Tc(d/e/) | (f>b)(d>e) Tf2 f(d/e/) | (f>b)d>f g<c Tc(d/e/) | f(g/a/) (b>a) (g>f) e>d {/d}c>B {Bc}d>B c<C C(D/E/) | F>B (TG/F/)(E/D/) ~F2 D>G !segno!|]


